X:460
T: King of the Hill
C: BB
R: jig
Q: 1/8=320
M: 6/8
L: 1/8
K: G
A|"G"BGD "Em"B,EE|"C"CEE "Gdim"^CEE|"G"DEG "Am"AGA|"Em"Bdd "C"edc|
"G"BGD "Em"B,EE|"C"CEE "Gdim"^CEE|"G"DEG "D7"Fdc|"G"BGF "G"G2 :|
A|"G"Bcd "Em7"edd|"G"gdd "Em7"edd|"C"cee "A7"^cag|"D7"fd^c d2 f |
"G"gdB "Am"cBA|"G"Bcd BAG|"G"DEG "D7"Fdc|"G"BGF "G"G2 :|
%%%%%%%%%%%%%%%%%%%%%%%%%%%%%%%%%%%%%%%%%%%
